X: 41441
T: Two Fingered, The
R: reel
M: 4/4
K: Gmajor
|:g2 dg edBe|dGBG AGEG|DEGA B2 dB|c2 ec defd|
gddg edBe|dGBG AGEG|DEGA B2 dB|cedc BG G2:|
|:g2 ag e3 g|edBe dBAB|GABd GBdB|c2 ec defd|g2 ag e3 g|
edBe dBAB|1 GD !roll!D2 GBdB|cedc BG G2:|2 GD !roll!D2 GD !roll!D2|c e3 defd||

